X:1
T:Herr Olav
T:W. Peterson-Berger (1867-1942)
T:Herr Olav
T:Norsk folkvisa
T:©CPDL Edition may be freely distributed, duplicated, performed and recorded PA Aglert
T:©CPDL Edition may be freely distributed, duplicated, performed and recorded PA Aglert
T:©CPDL Edition may be freely distributed, duplicated, performed and recorded PA Aglert
T:©CPDL Edition may be freely distributed, duplicated, performed and recorded PA Aglert
T:©CPDL Edition may be freely distributed, duplicated, performed and recorded PA Aglert
C:W. Peterson-Berger (1867-1942)
Z:©CPDL Edition may be freely distributed, duplicated, performed and recorded
Z:PA Aglert
%%score [ 1 2 3 4 ]
L:1/8
Q:1/4=60
M:4/4
K:Bmin
V:1 treble nm="S"
V:2 treble nm="A"
V:3 treble-8 nm="T"
V:4 bass nm="B"
V:1
"^Lento"!mf! F | F2 dc B2 FA | B2 AF E3 F |!<(! FEF^A!<)! BcBA |!>(! (FE)!>)! F4 z!mp! F | %5
w: Herr|O- lav han tjän- te vid|ko- nung- ens hov, där|tjän- te han för va- pen och för|ä- * ra. Så|
 F2 DC!<(! B,2 FB!<)! |!f! d2 (c/B/)c!>(! B3!>)!!p! c | dBc^A F!<(!EFA!<)! | %8
w: kom der ett bud i- från|främ- man- * de land för-|mä- lan- de att död var nu hans|
 (c^A)!>(! !fermata!B4!>)! z2 | z2 z!f! F F2!<(! d!<)!c |!mp! B2!<(! FA!<)! B2!>(! AF!>)! | %11
w: kä- * ra.|Herr O- lav han|sad- lar sin gång- a- re|
 EGF!<(!c B!<)!d!f!fF | B4!p!!>(! ^A3!>)! z | z2 z!mf! F Fd/!<(!c/ BF/!<)!B/ | %14
w: röd, som var så liv- lig och så|fa- ger.|Så ri- der han ö- ver de|
 AD/E/ F>^A Bc/d/!<(! ed/!<)!e/ | fd/!>(!B/!>)! ^Ac!p! d/d/c/B/ A!<(!F/A/ | %16
w: nor- dis- ka fjäll, så ri- der han ö- ver de|nor- dis- ka fjäll så has- tigt som en vind mån- de|
 (B!<)!!>(!c) F2-!>)! !fermata!F2 z!pp! F | F2 dc!<(! B2 FA!<)! |!>(! B2 AF!>)! !>!E3!pp! E | %19
w: dra- * ga. _ Herr|O- lav sjönk ned vid sin|kä- res- tas bår. Där|
!<(! (FE)F!<)!^A (Bc)!>(!BA!>)! |!<(! (F!<)!E)!>(! F4!>)! z!p! F | F2 DC B,2!<(! (FB)!<)! | %22
w: lopp _ ho- nom mång- * en till|han- * da. Sin|en- sam- ma själ be- *|
!mf! d2!p! (c/B/)!>(!c B3!>)!!pp! c | (dB)c^A (FE)!<(!FA!<)! | %24
w: fal- de _ han Gud och|se- * dan upp- gav _ han sin|
!pp!!<(! (c^A)!<)!!>(! !fermata!B6!>)! |] %25
w: an- * da.|
V:2
!mf! F | F2 dc B2 FA | D2 DD C3 C |!<(! DCCF!<)! F^EFE |!>(! B,2 C4!>)! z!mp! F | %5
w: Herr|O- lav han tjän- te vid|ko- nung- ens hov, där|tjän- te han för va- pen och för|ä- ra. Så|
 F2 ^A,A,!<(! B,2 DF!<)! |!f! ^E2 E=E!>(! ^D2 =D2!>)! |!p! DF^EE F!<(!CC!<)!F | %8
w: kom der ett bud i- från|främ- man- de land för-|mä- lan- de att död var nu hans|
 (!courtesy!=EC)!>(! !fermata!D4!>)! z2 | z2 z!f! F F2!<(! A!<)!A | %10
w: kä- * ra.|Herr O- lav han|
!mp! F2!<(! FF!<)! G2!>(! GF!>)! | CEE!<(!E D!<)!F!f!GF | (AG)!p! F4-!>)!!>(! F z | %13
w: sad- lar sin gång- a- re|röd, som var så liv- lig och så|fa- * ger. _|
 z2 z!mf! E D2!<(! DF!<)! | A2 F>F G2!<(! GG!<)! | BFFE!p! ^G=G F!<(!F/F/ | %16
w: Så ri- der han|ö- ver de nor- dis- ka|fjäll mot öst så snabbt som väst- vin- den|
 G2!<)!!>(! F2-!>)! !fermata!F2 z!pp! F | E2 EE!<(! D2 DE!<)! |!>(! G2 FD!>)! !>!D3!pp! D | %19
w: dra- ger. _ Herr|O- lav sjönk ned vid sin|kä- res- tas bår. Där|
!<(! C2 C!<)!E D2!>(! EC!>)! |!<(! B,2!<)!!>(! C4!>)! z!p! F | F2 DC B,2!<(! F2!<)! | %22
w: lopp ho- nom mång- en till|han- da. Sin|en- sam- ma själ be-|
!mf! F2!p! ^E!>(!=E D2 (CE)!>)! |!pp! F2 ^EE C2!<(! CC!<)! | %24
w: fal- de han Gud och _|se- dan upp- gav han sin|
!pp!!<(! !courtesy!=E4!<)!!>(! !fermata!D4!>)! |] %25
w: an- da.|
V:3
!mf! F | F2 dc B2 FA | B2 AA A3 c |!<(! BB^Ac!<)! BBBB |!>(! ^G2!>)! ^A4 z!mp! F | %5
w: Herr|O- lav han tjän- te vid|ko- nung- ens hov, där|tjän- te han för va- pen och för|ä- ra. Så|
 F2 GG!<(! F2 Bd!<)! |!f! B2 B^A!>(! =A2 ^G2!>)! |!p! GFBB ^A!<(!BA!<)!F | %8
w: kom der ett bud i- från|främ- man- de land för-|mä- lan- de att död var nu hans|
!>(! G4!>)! !fermata!F2 z2 | z2 z!f! e d2!<(! d!<)!e |!mp! d2!<(! cc!<)! c3!>(! d!>)! | %11
w: kä- ra.|han sad- lar sin|gång- a- re röd. Den|
 ^AB!<(!AF f!<)!d!f!dd | (^de)!p! c4-!>)!!>(! c z | z2 z!mf! F F2!<(! Bd!<)! | %14
w: rö- de var så liv- lig och så|fa- * ger. _|Så ri- der han|
 f2 (e/d/)e d2!<(! ce!<)! | ddef!p! B(e/d/) c!<(!e/e/ | (e3!<)!!>(! ^d)!>)! !fermata!=d2 z!pp! F | %17
w: ö- ver _ de nor- dis- ka|fjäll mot öst så snabbt som _ väst- vin- den|dra- * ger. Herr|
 ^A2 AA!<(! B2 Bc!<)! |!>(! d2 d!>)!A !>!^G3!pp! G |!<(! !courtesy!=G2 F!<)!F G2!>(! GG!>)! | %20
w: O- lav sjönk ned vid sin|kä- res- tas bår. Där|lopp ho- nom mång- en till|
!<(! (G!<)!B)!>(! ^A4!>)! z!p! F | F2 DC B,2!<(! (FB)!<)! |!mf! B2!p! B!>(!^A B2 G2!>)! | %23
w: han- * da. Sin|en- sam- ma själ be- *|fal- de han Gud och|
!pp! (Ad)Bc (^A^G)!<(!AF!<)! |!pp!!<(! !courtesy!=G4!<)!!>(! !fermata!F4!>)! |] %25
w: se- * dan upp- gav _ han sin|an- da.|
V:4
!mf! F, | F,2 DC B,2 F,A, | G,2 F,D, A,,2 A,2 |!<(! ^G,=G,F,E,!<)! D,C,D,C, | %4
w: Herr|O- lav han tjän- te vid|ko- nung- ens hov, där|tjän- te han för va- pen och för|
!>(! (D,C,)!>)! [F,,C,]4 z!mp! F, | F,2 E,E,!<(! D,2 B,,B,,!<)! |!f! G,,2 G,F,!>(! =F,2 E,2!>)! | %7
w: ä- * ra. Så|kom der ett bud i- från|främ- man- de land för-|
!p! B,,D,C,C, F,!<(!G,F,!<)!F, |!>(! B,,4!>)! !fermata!B,,2 z!mf! F, | F,2 D!f!C B,2!<(! F,!<)!A, | %10
w: mä- lan- de att död var nu hans|kä- ra. Herr|O- lav han sad- lar sin|
!mp! B,2!<(! A,F,!<)! E,3!>(! F,!>)! | F,E,!<(!F,^A, B,!<)!C!f!B,A, | %12
w: gång- a- re röd. Den|rö- de var så liv- lig och så|
 (F,E,)!p!!>(! F,4!>)! z!mf! F, | F,2 D,C, B,,2!<(! F,B,!<)! | D2 (C/B,/)C B,3!<(! C!<)! | %15
w: fa- * ger. Så|ri- der han ö- ver de|nor- dis- * ka fjäll mot|
 DB,C^A,!p! F,E,F,!<(!A, | (C!<)!^A,) !fermata!B,4!>)!!>(! z!pp! F, | %17
w: öst så snabbt som väst- an- vin- den|dra- * ger. Herr|
 [B,,F,]2 [B,,F,][B,,F,]!<(! [B,,F,]2 B,!<)!!courtesy!=A, |!>(! G,2 D,!>)!D, !>!B,,3!pp! B,, | %19
w: O- lav sjönk ned vid sin|kä- res- tas bår. Där|
!<(! B,,2 ^A,,!<)!C, B,,2!>(! C,E,!>)! |!<(! (D,!<)!G,)!>(! F,4!>)! z!p! F, | %21
w: lopp ho- nom mång- en till|han- * da. Sin|
 F,2 D,C, B,,2!<(! (F,B,)!<)! |!mf! ^G,2!p! =G,!>(!F, G,2 E,2!>)! |!pp! D,2 G,G, C,2!<(! F,F,!<)! | %24
w: en- sam- ma själ be- *|fal- de han Gud och|se- dan upp- gav han sin|
!pp!!<(! B,,4!<)!!>(! !fermata!B,,4!>)! |] %25
w: an- da.|

